src/svg/uf039-align-justify.svg

<!-- Generated by IcoMoon.io -->
<svg version="1.1" xmlns="http://www.w3.org/2000/svg" width="32" height="32" viewBox="0 0 32 32">
<path d="M32 24v2.286c0 0.625-0.518 1.143-1.143 1.143h-29.714c-0.625 0-1.143-0.518-1.143-1.143v-2.286c0-0.625 0.518-1.143 1.143-1.143h29.714c0.625 0 1.143 0.518 1.143 1.143zM32 17.143v2.286c0 0.625-0.518 1.143-1.143 1.143h-29.714c-0.625 0-1.143-0.518-1.143-1.143v-2.286c0-0.625 0.518-1.143 1.143-1.143h29.714c0.625 0 1.143 0.518 1.143 1.143zM32 10.286v2.286c0 0.625-0.518 1.143-1.143 1.143h-29.714c-0.625 0-1.143-0.518-1.143-1.143v-2.286c0-0.625 0.518-1.143 1.143-1.143h29.714c0.625 0 1.143 0.518 1.143 1.143zM32 3.429v2.286c0 0.625-0.518 1.143-1.143 1.143h-29.714c-0.625 0-1.143-0.518-1.143-1.143v-2.286c0-0.625 0.518-1.143 1.143-1.143h29.714c0.625 0 1.143 0.518 1.143 1.143z"></path>
</svg>

<svg xmlns="http://www.w3.org/2000/svg" width="32" height="32"><path d="M32 24v2.286c0 .625-.518 1.143-1.143 1.143H1.143A1.151 1.151 0 0 1 0 26.286V24c0-.625.518-1.143 1.143-1.143h29.714c.625 0 1.143.518 1.143 1.143zm0-6.857v2.286c0 .625-.518 1.143-1.143 1.143H1.143A1.151 1.151 0 0 1 0 19.429v-2.286C0 16.518.518 16 1.143 16h29.714c.625 0 1.143.518 1.143 1.143zm0-6.857v2.286c0 .625-.518 1.143-1.143 1.143H1.143A1.151 1.151 0 0 1 0 12.572v-2.286c0-.625.518-1.143 1.143-1.143h29.714c.625 0 1.143.518 1.143 1.143zm0-6.857v2.286c0 .625-.518 1.143-1.143 1.143H1.143A1.151 1.151 0 0 1 0 5.715V3.429c0-.625.518-1.143 1.143-1.143h29.714c.625 0 1.143.518 1.143 1.143z"/></svg>
